!!!COM: Schubert, Franz
!!!CDT: 1797/01/31-1828/11/19
!!!SCT: D. 779
!!!OPR: Valses sentimentales
!!!OPS: 50
!!!ONM: 4
**kern	**kern	**dynam
*part1	*part1	*part1
*staff2	*staff1	*
*>[A,B,B1,B,B2]	*>[A,B,B1,B,B2]	*>[A,B,B1,B,B2]
*clefG2	*clefG2	*
*k[f#]	*k[f#]	*
*G:	*G:	*
*M3/4	*M3/4	*
=1	=1	=1
*>A	*>A	*>A
*D:	*D:	*
16r	16b 16dd 16gg	mf
4r	8.b^L 8.dd 8.gg	fz
.	16aJk 16cc#X 16ff#	.
*clefF4	*	*
=	=	=
4GG	4g 4b 4ee	.
4G 4B 4e	4g 4b 4ee	.
4G 4B 4e	4g 4b 4ee	.
=	=	=
4AA	(4g 4a 4ee	.
4F# 4A 4d	8.f#) 8.a 8.dd	.
.	16dd	.
4F# 4A 4d	8dd^L	.
.	8eeJ	.
=	=	=
4AA	(8ddL	.
.	8cc#X)	.
4A 4e 4g	(8cc#	.
.	8aa)	.
4A 4e 4g	(8cc#	.
.	8bbJ)	.
=	=	=
4D	4..dd	.
4A 4d 4f#	.	.
*G:	*G:	*
.	16ee 16gg 16cccn	.
4r	8.ee^L 8.gg 8.ccc	fz
.	16ddJk 16ff# 16bb	.
=	=	=
4C	4cc 4ee 4aa	.
*clefG2	*	*
4c 4e 4a	4cc 4ee 4aa	.
4c 4e 4a	4cc 4ee 4aa	.
*clefF4	*	*
=	=	=
4D	(4cc 4dd 4aa	.
*clefG2	*	*
4B 4d 4g	8.b) 8.dd 8.gg	.
.	16gg	.
4B 4d 4g	8gg^L	.
.	8aaJ	.
*clefF4	*	*
=	=	=
4D	(8ggL	.
.	8ff#)	.
*clefG2	*	*
4d 4a 4cc	(8ff#^	.
.	8eee)	.
4d 4a 4cc	(8ff#	.
.	8dddJ)	.
=	=	=
4G	4..gg	.
8.d 8.g 8.b	.	.
=:|!|:	=:|!|:	=:|!|:
*>B	*>B	*>B
16r	16gg	f
4r	(8gg^L	.
.	8aaJ)	.
*clefF4	*	*
=	=	=
4D	(8ggL	.
.	8ff#)	.
*clefG2	*	*
4d 4a 4cc	(8ff#	fz
.	8eee)	.
4d 4a 4cc	(8ff#	.
.	8dddJ)	.
*clefF4	*	*
=	=	=
4D	(8ggL	.
.	8ff#)	.
*clefG2	*	*
4d 4a 4cc	(8ff#	fz
.	8eee)	.
4d 4a 4cc	(8ff#	.
.	8dddJ)	.
=	=	=
4G	(8aaL	.
.	8gg)	.
4d 4g 4b	(8gg	fz
.	8eee)	.
4d 4g 4b	(8gg	.
.	8dddJ)	.
=	=	=
4G	(8aaL	.
.	8gg)	.
4d 4g 4b	(8gg	fz
.	8eee)	.
4d 4g 4b	(8gg	.
.	8dddJ)	.
*clefF4	*	*
=	=	=
4C#X	(8aaL	ff
.	8gg)	.
*clefG2	*	*
4B-X 4e 4g	(8gg	.
.	8ggg)	.
4B- 4e 4g	(8ee	.
.	8eeeJ)	.
*clefF4	*	*
=	=	=
4D	(8eeL	.
.	8dd)	.
*clefG2	*	*
4Bn 4d 4g	(8dd	.
.	8ddd)	.
4B 4d 4g	(8b	.
.	8bbJ)	.
*clefF4	*	*
=	=	=
4D	(8dddL	.
.	8ccc)	.
*clefG2	*	*
4c 4d 4f#	(8ccc	.
.	8cccc)	.
4c 4d 4f#	(8aa	.
.	8aaaJ)	.
=	=	=
*>B1	*>B1	*>B1
4G	4..gg 4..ggg	.
8.B 8.d 8.g	.	.
=:|!	=:|!	=:|!
*>B2	*>B2	*>B2
4G	2gg 2ggg	.
4B 4d 4g	.	.
==	==	==
*-	*-	*-
!!!system-decoration: {(s1,s2)}
!!!AGN: Walzer
!!!EED: Wolfgang Drescher
!!!END: 2025/05/07
!!!ENC: Julian Schneider
!!!EEV: 2025/05/07
!!!title: @{OPR}, @{SCT} №@{ONM}